X:1224
T:Toss the Feathers
M:C|
L:1/8
R:Reel
B:O'Neill's 1224
N:1st Setting
N:Collected by J. O'Neill
Z:Transcribed by Trish O'Neil
K:D
D2AD EDAD|D2AG EGGE|D2AD EDEG|1 AdedB dcAGE :|2 AcGE "End"ADD2||
Ad2dd2cd|edcd edcd|edad fdad|edc.e edce|
ea2g eg2e|dfed dcAGE|D2ED EAAB|cded dcAG"D.C."E|]
